build/svg/cmd/lc_configuredialog.svg

<?xml version="1.0" encoding="UTF-8" standalone="no"?>
<svg
   xmlns:dc="http://purl.org/dc/elements/1.1/"
   xmlns:cc="http://creativecommons.org/ns#"
   xmlns:rdf="http://www.w3.org/1999/02/22-rdf-syntax-ns#"
   xmlns:svg="http://www.w3.org/2000/svg"
   xmlns="http://www.w3.org/2000/svg"
   xmlns:sodipodi="http://sodipodi.sourceforge.net/DTD/sodipodi-0.dtd"
   xmlns:inkscape="http://www.inkscape.org/namespaces/inkscape"
   viewBox="0 0 24 24"
   version="1.1"
   id="svg4"
   sodipodi:docname="lc_configuredialog.svg"
   inkscape:export-filename="/home/jupiter007/Libreoffice yaru theme fullcolor/build/cmd/lc_configuredialog.png"
   inkscape:export-xdpi="95"
   inkscape:export-ydpi="95"
   inkscape:version="0.92.5 (2060ec1f9f, 2020-04-08)">
  <metadata
     id="metadata10">
    <rdf:RDF>
      <cc:Work
         rdf:about="">
        <dc:format>image/svg+xml</dc:format>
        <dc:type
           rdf:resource="http://purl.org/dc/dcmitype/StillImage" />
      </cc:Work>
    </rdf:RDF>
  </metadata>
  <defs
     id="defs8" />
  <sodipodi:namedview
     pagecolor="#ffffff"
     bordercolor="#666666"
     borderopacity="1"
     objecttolerance="10"
     gridtolerance="10"
     guidetolerance="10"
     inkscape:pageopacity="0"
     inkscape:pageshadow="2"
     inkscape:window-width="1920"
     inkscape:window-height="1011"
     id="namedview6"
     showgrid="false"
     inkscape:zoom="9.8333333"
     inkscape:cx="0.66101695"
     inkscape:cy="12"
     inkscape:window-x="0"
     inkscape:window-y="32"
     inkscape:window-maximized="1"
     inkscape:current-layer="svg4" />
  <path
     style="opacity:1;fill:#924d8b;fill-opacity:1;fill-rule:nonzero;stroke:none;stroke-width:0.001;stroke-linecap:butt;stroke-linejoin:round;stroke-miterlimit:4;stroke-dasharray:none;stroke-dashoffset:0;stroke-opacity:1"
     d="m 7.5,3.9999998 c -1.939,0 -3.5,1.561 -3.5,3.5 C 4,9.4389998 5.561,11 7.5,11 h 9 c 1.939,0 3.5,-1.5610002 3.5,-3.5000002 0,-1.939 -1.561,-3.5 -3.5,-3.5 z m 9,1 c 1.385,0 2.5,1.115 2.5,2.5 0,1.385 -1.115,2.5 -2.5,2.5 -1.385,0 -2.5,-1.115 -2.5,-2.5 0,-1.385 1.115,-2.5 2.5,-2.5 z"
     id="rect819"
     inkscape:connector-curvature="0" />
  <path
     inkscape:connector-curvature="0"
     id="path824"
     d="m 16.5,13 c 1.939,0 3.5,1.561 3.5,3.5 0,1.939 -1.561,3.5 -3.5,3.5 h -9 C 5.561,20 4,18.439 4,16.5 4,14.561 5.561,13 7.5,13 Z m -9,1 C 6.115,14 5,15.115 5,16.5 5,17.885 6.115,19 7.5,19 8.885,19 10,17.885 10,16.5 10,15.115 8.885,14 7.5,14 Z"
     style="opacity:1;fill:#924d8b;fill-opacity:1;fill-rule:nonzero;stroke:none;stroke-width:0.001;stroke-linecap:butt;stroke-linejoin:round;stroke-miterlimit:4;stroke-dasharray:none;stroke-dashoffset:0;stroke-opacity:1" />
  <circle
     style="opacity:1;fill:#ffffff;fill-opacity:1;fill-rule:nonzero;stroke:none;stroke-width:2;stroke-linecap:round;stroke-linejoin:round;stroke-miterlimit:4;stroke-dasharray:none;stroke-opacity:1"
     id="path814"
     cx="16.5"
     cy="7.5"
     r="2.5" />
  <circle
     r="2.5"
     cy="16.5"
     cx="7.5"
     id="circle816"
     style="opacity:1;fill:#ffffff;fill-opacity:1;fill-rule:nonzero;stroke:none;stroke-width:2;stroke-linecap:round;stroke-linejoin:round;stroke-miterlimit:4;stroke-dasharray:none;stroke-opacity:1" />
</svg>

<svg xmlns="http://www.w3.org/2000/svg" viewBox="0 0 24 24"><path d="M7.5 4A3.492 3.492 0 004 7.5C4 9.439 5.561 11 7.5 11h9c1.939 0 3.5-1.561 3.5-3.5S18.439 4 16.5 4zm9 1C17.885 5 19 6.115 19 7.5S17.885 10 16.5 10A2.495 2.495 0 0114 7.5C14 6.115 15.115 5 16.5 5zM16.5 13c1.939 0 3.5 1.561 3.5 3.5S18.439 20 16.5 20h-9A3.492 3.492 0 014 16.5C4 14.561 5.561 13 7.5 13zm-9 1A2.495 2.495 0 005 16.5C5 17.885 6.115 19 7.5 19s2.5-1.115 2.5-2.5S8.885 14 7.5 14z" fill="#924d8b"/><circle cx="16.5" cy="7.5" r="2.5" fill="#fff"/><circle r="2.5" cy="16.5" cx="7.5" fill="#fff"/></svg>
